icons/notion/notion-plain.svg

<?xml version="1.0" encoding="UTF-8" standalone="no"?>
<svg
   viewBox="0 0 128 128"
   version="1.1"
   id="svg2"
   sodipodi:docname="notion-plain34.svg"
   inkscape:version="1.3 (0e150ed6c4, 2023-07-21)"
   xmlns:inkscape="http://www.inkscape.org/namespaces/inkscape"
   xmlns:sodipodi="http://sodipodi.sourceforge.net/DTD/sodipodi-0.dtd"
   xmlns="http://www.w3.org/2000/svg"
   xmlns:svg="http://www.w3.org/2000/svg">
  <defs
     id="defs2" />
  <sodipodi:namedview
     id="namedview2"
     pagecolor="#ffffff"
     bordercolor="#000000"
     borderopacity="0.25"
     inkscape:showpageshadow="2"
     inkscape:pageopacity="0.0"
     inkscape:pagecheckerboard="0"
     inkscape:deskcolor="#d1d1d1"
     inkscape:zoom="5.0078125"
     inkscape:cx="64"
     inkscape:cy="64"
     inkscape:window-width="1600"
     inkscape:window-height="837"
     inkscape:window-x="-8"
     inkscape:window-y="-8"
     inkscape:window-maximized="1"
     inkscape:current-layer="svg2" />
  <path
     id="path1"
     d="M 84.09375 7.7128906 C 83.567109 7.7078828 83.032781 7.7265314 82.488281 7.7695312 L 57.824219 9.59375 L 32.035156 11.496094 L 15.847656 12.757812 C 12.577664 13.058812 10.550842 15.058631 9.9648438 18.265625 C 9.819844 19.077623 9.7578125 19.918096 9.7578125 20.746094 L 9.6914062 86.988281 C 9.6684064 91.328273 10.995756 94.93782 13.59375 98.257812 L 25.886719 114.11719 C 26.476717 114.87519 27.070158 115.53064 27.535156 116.26562 C 29.789152 119.79262 33.020008 121.07378 37.125 120.80078 L 64.933594 119.14453 L 96.230469 117.25391 C 101.42645 116.93791 106.62552 116.668 111.8125 116.25 C 116.4305 115.879 118.66 113.38289 118.75 108.75391 L 118.75 107.75391 L 118.78516 31.886719 C 118.78916 29.601723 117.99986 28.00356 116.17188 26.726562 C 108.80788 21.589574 101.41042 16.492021 94.148438 11.207031 C 91.048319 8.951286 87.78024 7.7479453 84.09375 7.7128906 z M 83.195312 14.105469 C 85.383308 13.984469 87.507848 14.33644 89.464844 15.398438 A 697.555 697.555 0 0 1 97.1875 20.761719 A 233.798 233.798 0 0 1 102.14453 24.324219 C 102.60853 24.668217 102.96514 25.155969 103.57812 25.792969 C 102.90714 25.917969 102.60186 26.012344 102.29688 26.027344 L 68.886719 28.03125 L 37.851562 29.976562 C 33.90957 30.261562 30.468713 29.612682 27.511719 26.804688 C 25.952721 25.32369 24.14431 24.101715 22.445312 22.761719 C 21.729314 22.194719 20.973406 21.667062 20.316406 21.039062 C 19.961408 20.699064 19.475938 20.077531 19.585938 19.769531 C 19.733936 19.331533 20.340314 18.847719 20.820312 18.761719 C 22.25031 18.502719 23.707252 18.397969 25.15625 18.292969 L 73.105469 14.808594 C 76.469461 14.565594 79.83232 14.289469 83.195312 14.105469 z M 107.40234 33.523438 C 109.95234 33.387438 111.05466 34.434006 111.22266 37 C 111.24566 37.375 111.23437 37.75 111.23438 38.125 L 111.23047 102.60156 C 111.23047 103.10156 111.24631 103.60456 111.19531 104.10156 C 110.93431 106.86656 109.64547 108.09009 106.85547 108.24609 L 62.089844 110.80469 L 38.648438 112.1875 C 37.941438 112.2305 37.230342 112.25384 36.527344 112.21484 C 33.72735 112.05484 32.354781 110.66036 32.300781 107.85938 L 32.292969 101.61328 L 32.292969 68.125 L 32.296875 42.382812 A 10.64 10.64 0 0 1 32.394531 40.765625 C 32.706531 38.745629 33.641035 37.854656 35.707031 37.722656 L 51.914062 36.75 A 43791.29 43791.29 0 0 1 84.332031 34.851562 L 107.40234 33.523438 z M 100.10547 45.597656 L 84.554688 46.542969 C 82.86469 46.663969 81.582217 48.07766 81.324219 49.722656 C 81.199219 50.515654 81.362502 50.953814 82.3125 51.007812 L 87.019531 51.527344 L 87.019531 81.707031 L 78.113281 68.140625 L 65.191406 48.460938 C 64.743408 47.776938 64.300654 47.550625 63.472656 47.640625 C 61.65166 47.839625 59.816277 47.886719 57.988281 48.011719 C 54.625289 48.245719 51.25443 48.437 47.898438 48.75 C 45.418442 48.977 43.918469 51.308568 44.605469 53.726562 L 49.949219 54.183594 L 49.949219 97.476562 L 46.308594 98.503906 C 44.694596 98.979906 44.003877 100.34014 44.546875 102.07812 L 56.855469 101.37109 C 58.473465 101.27309 60.109129 101.23366 61.703125 100.97266 C 63.793121 100.62766 64.918219 99.347808 65.199219 97.257812 L 58.46875 95.722656 L 58.46875 63.160156 C 58.73475 63.527156 58.85975 63.687375 58.96875 63.859375 L 74.4375 88.011719 A 366.671 366.671 0 0 0 81.441406 98.472656 C 83.147404 100.92265 85.664192 101.6685 88.492188 101.0625 L 93.695312 99.40625 C 94.598312 99.11325 94.906344 98.574498 94.902344 97.5625 L 94.871094 53.0625 C 94.871094 50.457506 94.871318 50.457406 97.445312 49.941406 C 100.04731 49.418408 100.69947 48.37765 100.10547 45.597656 z " />
</svg>

<svg xmlns="http://www.w3.org/2000/svg" viewBox="0 0 128 128"><path d="M84.094 7.713a18.176 18.176 0 0 0-1.606.057L57.824 9.594l-25.789 1.902-16.187 1.262c-3.27.3-5.297 2.3-5.883 5.508a14.19 14.19 0 0 0-.207 2.48L9.69 86.988c-.023 4.34 1.305 7.95 3.903 11.27l12.293 15.86c.59.757 1.183 1.413 1.648 2.148 2.254 3.527 5.485 4.808 9.59 4.535l27.809-1.656 31.296-1.891c5.196-.316 10.396-.586 15.582-1.004 4.618-.371 6.848-2.867 6.938-7.496v-1l.035-75.867c.004-2.285-.785-3.883-2.613-5.16-7.364-5.137-14.762-10.235-22.024-15.52-3.1-2.256-6.368-3.46-10.054-3.494zm-.899 6.392c2.188-.12 4.313.231 6.27 1.293a697.555 697.555 0 0 1 7.722 5.364 233.798 233.798 0 0 1 4.958 3.562c.464.344.82.832 1.433 1.469-.67.125-.976.22-1.281.234l-33.41 2.004-31.035 1.946c-3.942.285-7.383-.364-10.34-3.172-1.56-1.481-3.368-2.703-5.067-4.043-.716-.567-1.472-1.095-2.129-1.723-.355-.34-.84-.961-.73-1.27.148-.437.754-.921 1.234-1.007 1.43-.26 2.887-.364 4.336-.469l47.95-3.484c3.363-.243 6.726-.52 10.09-.704zm24.207 19.418c2.55-.136 3.653.911 3.82 3.477.024.375.012.75.012 1.125l-.004 64.477c0 .5.016 1.003-.035 1.5-.26 2.765-1.55 3.988-4.34 4.144l-44.765 2.559-23.442 1.382a18.32 18.32 0 0 1-2.12.028c-2.8-.16-4.173-1.555-4.227-4.356l-.008-6.246V68.125l.004-25.742a10.64 10.64 0 0 1 .098-1.617c.312-2.02 1.246-2.911 3.312-3.043l16.207-.973a43791.29 43791.29 0 0 1 32.418-1.898l23.07-1.329zm-7.297 12.075-15.55.945c-1.69.121-2.973 1.535-3.23 3.18-.126.793.038 1.23.987 1.285l4.708.52v30.179l-8.907-13.566-12.922-19.68c-.448-.684-.89-.91-1.718-.82-1.821.199-3.657.246-5.485.37-3.363.235-6.734.426-10.09.739-2.48.227-3.98 2.559-3.293 4.977l5.344.457v43.293l-3.64 1.027c-1.614.476-2.305 1.836-1.762 3.574l12.308-.707c1.618-.098 3.254-.137 4.848-.398 2.09-.345 3.215-1.625 3.496-3.715l-6.73-1.535V63.16c.266.367.39.527.5.7l15.468 24.152a366.671 366.671 0 0 0 7.004 10.46c1.706 2.45 4.223 3.197 7.051 2.59l5.203-1.656c.903-.293 1.211-.832 1.207-1.844l-.03-44.5c0-2.604 0-2.605 2.573-3.12 2.602-.524 3.254-1.564 2.66-4.344z"/></svg>
